!!!OTL: "Die Treue" MEIN SCHATZ DER GING DEN BERG HINAUF
!!!ARE: Europa, Mitteleuropa, Deutschland, Nord - Deutschland
!!!SCT: Z1186
!!!YEM: Copyright 1995, estate of Helmut Schaffrath.
**kern
*ICvox
*Ivox
*M6/8
*k[]
*C:
{8G
=1
4c
8c
4B
8B
=2
4A
8A
4.G}
=3
{4F
8F
8E
8E
8G
=4
4G
8B
4.c}
=5
{8c
8B
8c
8e
8d
8c
=6
8d
8c
8d
8f
8e
8e}
=7
{4e
8e
8e
8d
8c
=8
4.d
4c}
==
!!!AGN: Liebes - Lied
!!!ONB: ESAC (Essen Associative Code) Database: ZUCCAL
!!!AMT: compound duple
!!!AIN: vox
!!!EED: Helmut Schaffrath
!!!EEV: 1.0
*-
